!!!!SEGMENT: pl-cz--iii-555--001-009_raszek-waclaw--requiem-agnus-dei.krn
!!!cenid: 17xx:1088
!!!COM: Raszek, Wacław
!!!COM-rismID: pe30020314
!!!CDT: <1848->1848
!!!CNT:
!!!OPR: Requiem
!!!OTL: Agnus Dei
!!!OMV: 009
!!!PDT:
!!!AGN: Sacred; Requiem
!!!YEC: Copyright 2022 Narodowy Instytut Fryderyka Chopina (https://polishscores.org)
!!!YEM: License CC-BY-4.0 (https://creativecommons.org/licenses/by/4.0)
!!!SMS-siglum: PL-CZ
!!!SMS-shelfmark: III-555
!!!SMS-shelfwork: 001-009 M
!!!SMS-variant:
!!!SMS-altvar:
!!!NIFC-rismSourceID: 300001055
!!!NIFC-rismChildID: 300001055
!!!NIFC-islandoraID: pl-cz:38890
!!!URL-pdf-islandora: https://repozytorium.nifc.pl/islandora/object/pl-cz%3A38890/datastream/PDF/view
!!!URL-scan: https://polish.musicsources.pl/pl/lokalizacje/galeria/rekopisy/6945/1 @EN{Scan on Polish Music Sources Website} @PL{Skany w portalu Dziedzictwo Muzyki Polskiej w otwartym dostępie}
!!!IIIF:
!!!ONB-nifc: UWAGA: części Requiem: Requiem, Kyrie, Dies irae, Qui Mariam, Domine Jesu Christe, Sanctus, Pleni sunt, Benedictus, Agnus Dei, Lux aeterna
!!!AIN: 1 alto 1 bass 2 clars 2 cor 1 fagot 1 soprn 1 tenor 1 viole
!!!OMD:
!!!OMD-mod: Adagio
!!!key: E-
**kern	**text	**mod-text	**kern	**text	**mod-text	**kern	**text	**mod-text	**kern	**text	**mod-text	**kern	**dynam	**kern	**dynam	**kern	**dynam	**kern	**dynam	**kern	**dynam
*part9	*	*	*part8	*	*	*part7	*	*	*part6	*	*	*part5	*	*part4	*	*part3	*	*part2	*	*part1	*
*staff9	*	*	*staff8	*	*	*staff7	*	*	*staff6	*	*	*staff5	*	*staff4	*	*staff3	*	*staff2	*	*staff1	*
!LO:MO:mod=*>[A,A1,A,A1,A,A2,B]	!	!	!LO:MO:mod=*>[A,A1,A,A1,A,A2,B]	!	!	!LO:MO:mod=*>[A,A1,A,A1,A,A2,B]	!	!	!LO:MO:mod=*>[A,A1,A,A1,A,A2,B]	!	!	!LO:MO:mod=*>[A,A1,A,A1,A,A2,B]	!	!LO:MO:mod=*>[A,A1,A,A1,A,A2,B]	!	!LO:MO:mod=*>[A,A1,A,A1,A,A2,B]	!	!LO:MO:mod=*>[A,A1,A,A1,A,A2,B]	!	!LO:MO:mod=*>[A,A1,A,A1,A,A2,B]	!
*>[A,A,B]	*	*	*>[A,A,B]	*	*	*>[A,A,B]	*	*	*>[A,A,B]	*	*	*>[A,A,B]	*	*>[A,A,B]	*	*>[A,A,B]	*	*>[A,A,B]	*	*>[A,A,B]	*
*>A	*	*	*>A	*	*	*>A	*	*	*>A	*	*	*>A	*	*>A	*	*>A	*	*>A	*	*>A	*
*I"Baſso.	*	*	*I"Tenore.	*	*	*I"Alto	*	*	*I"Canto	*	*	*I"Cornu IIdo in Dis.	*	*I"Corno Imo in dis	*	*I"Fagoto vel Violone.	*	*I"Clarinetto 2do in B.	*	*I"Clarinetto Imo in B.	*
*mI"Basso	*	*	*mI"Tenore	*	*	*	*	*	*mI"Soprano	*	*	*mI"Corno II in Eb	*	*mI"Corno I in Eb	*	*mI"Fagotto vel Violone	*	*mI"Clarinetto II in Bb	*	*mI"Clarinetto I in Bb	*
*I'B	*	*	*I'T	*	*	*I'A	*	*	*I'S	*	*	*I'cor 2 in Eb	*	*I'cor 1 in Eb	*	*I'fag|vlne	*	*I'cl 2 in Bb	*	*I'cl 1 in Bb	*
*Ibass	*	*	*Itenor	*	*	*Ialto	*	*	*Isoprn	*	*	*Icor	*	*Icor	*	*Ifagot|Iviole	*	*Iclars	*	*Iclars	*
*ICvox	*	*	*ICvox	*	*	*ICvox	*	*	*ICvox	*	*	*ICbras	*	*ICbras	*	*ICww|ICstr	*	*ICww	*	*ICww	*
*IGcoro	*	*	*IGcoro	*	*	*IGcoro	*	*	*IGcoro	*	*	*	*	*	*	*	*	*	*	*	*
*clefF4	*	*	*clefC4	*	*	*clefC3	*	*	*clefC1	*	*	*clefG2	*	*clefG2	*	*clefF4	*	*clefG2	*	*clefG2	*
*	*	*	*mclefGv2	*	*	*mclefG2	*	*	*mclefG2	*	*	*	*	*	*	*	*	*	*	*	*
*	*	*	*	*	*	*	*	*	*	*	*	*ITrd5c9	*	*ITrd5c9	*	*	*	*ITrd1c2	*	*ITrd1c2	*
*k[e-a-b-]	*	*	*k[e-b-a-]	*	*	*k[b-e-a-]	*	*	*k[a-b-e-]	*	*	*k[b-e-a-]	*	*k[b-e-a-]	*	*k[b-e-a-]	*	*k[b-e-]	*	*k[b-e-a-]	*
*mk[b-e-a-]	*	*	*mk[b-e-a-]	*	*	*	*	*	*mk[b-e-a-]	*	*	*	*	*	*	*	*	*mk[b-e-a-]	*	*	*
*E-:	*	*	*	*	*	*E-:	*	*	*E-:	*	*	*	*	*	*	*E-:	*	*	*	*	*
*M2/2	*	*	*M2/2	*	*	*M2/2	*	*	*M2/2	*	*	*M2/2	*	*M2/2	*	*M2/2	*	*M2/2	*	*M2/2	*
*met(c|)	*	*	*met(c|)	*	*	*met(c|)	*	*	*met(c|)	*	*	*met(c|)	*	*met(c|)	*	*met(c|)	*	*met(c|)	*	*met(c|)	*
*mmet(c|)	*	*	*mmet(c|)	*	*	*mmet(c|)	*	*	*mmet(c|)	*	*	*mmet(c|)	*	*mmet(c|)	*	*mmet(c|)	*	*mmet(c|)	*	*mmet(c|)	*
!	!	!	!	!	!	!	!	!	!	!	!	!	!	!	!	!	!	!LO:MO:mod=*null:null	!	!	!
*	*	*	*	*	*	*	*	*	*	*	*	*	*	*	*	*	*	*all\right	*	*	*
=1	=1	=1	=1	=1	=1	=1	=1	=1	=1	=1	=1	=1	=1	=1	=1	=1	=1	=1	=1	=1	=1
*2\right	*	*	*2\right	*	*	*2\right	*	*	*2\right	*	*	*2\right	*	*2\right	*	*2\right	*	*	*	*2\right	*
!	!	!	!	!	!	!	!	!	!	!	!	!	!	!	!	!	!	!LO:TX:t=P:problem=brak znaku przy kluczu	!	!	!
!	!	!	!	!	!	!	!	!	!	!	!	!LO:TX:a:Bi:t=Adagio.:mod=	!	!	!	!	!	!LO:TX:t=P:problem=brak taktu nr 1	!	!LO:TX:t=P:problem=w źrodle znak repetycji na początku taktu	!
!LO:TX:a:Bi:t=adagio:mod=	!	!	!LO:TX:a:Bi:t=adagio:mod=	!	!	!LO:TX:a:Bi:t=Adagio:mod=	!	!	!LO:TX:a:Bi:t=adagio:mod=	!	!	!LO:SIC:v:o=2A-/	!	!LO:TX:a:Bi:t=Adagio:mod=	!	!LO:TX:a:Bi:t=adagio:mod=	!	!LO:TX:a:Bi:t=Adagio:mod=	!	!LO:TX:a:Bi:t=adagio:mod=	!
!	!	!	!	!	!	!	!	!	!	!	!	!	!	!	!	!	!	!LO:MO:mod=2g/@	!	!	!
2.E-\	A-	A-	2B-\	A-	A-	2g\	A-	A-	2ee-\	A-	A-	2B-	.	2e-\	.	2E-\	.	1ryy	.	2ee-\	.
!	!	!	!	!	!	!	!	!	!	!	!	!	!	!	!	!	!	!LO:MO:null:mod=2r@	!	!	!
.	.	.	4d\	-gnus	-gnus	2a-\	-gnus	-gnus	4dd\	-gnus	-gnus	2r	.	2r	.	2r	.	.	.	2r	.
4E-\	-gnus	-gnus	4c\	.	.	.	.	.	4cc\	.	.	.	.	.	.	.	.	.	.	.	.
=2	=2	=2	=2	=2	=2	=2	=2	=2	=2	=2	=2	=2	=2	=2	=2	=2	=2	=2	=2	=2	=2
!	!	!	!	!	!	!	!	!	!	!	!	!	!	!LO:TX:b:t=4.:mod=	!	!LO:TX:a:t=4:mod=	!	!LO:TX:a:t=4:mod=	!	!LO:TX:a:t=4:mod=	!
2E-\	De-	De-	2e-\	De-	De-	2a-\	De-	De-	4.cc\	De-	De-	00r	.	00r	.	00r	.	00r	.	00r	.
.	.	.	.	.	.	.	.	.	16b-\LL	-i	.	.	.	.	.	.	.	.	.	.	.
.	.	.	.	.	.	.	.	.	16cc\JJ	.	.	.	.	.	.	.	.	.	.	.	.
4E-\	-i	-i	4e-\	-i	-i	4g\	-i	-i	4b-\	qui	-i	.	.	.	.	.	.	.	.	.	.
4E-\	qui	qui	4B-\	qui	qui	4g\	qui	qui	4b-\	tol-	qui	.	.	.	.	.	.	.	.	.	.
=3	=3	=3	=3	=3	=3	=3	=3	=3	=3	=3	=3	=3	=3	=3	=3	=3	=3	=3	=3	=3	=3
2E-\	qui	tol-	2c\	tol-	tol-	2a-\	tol-	tol-	2cc\	-lis	tol-	.	.	.	.	.	.	.	.	.	.
4E-\	.	-lis	4c\	-lis	-lis	4a-\	-lis	-lis	4cc\	pec-	-lis	.	.	.	.	.	.	.	.	.	.
4E-\	tol-	pec-	4B-\	pec-	pec-	4f\	pec-	pec-	4dd\	-ca-	pec-	.	.	.	.	.	.	.	.	.	.
=4	=4	=4	=4	=4	=4	=4	=4	=4	=4	=4	=4	=4	=4	=4	=4	=4	=4	=4	=4	=4	=4
2E-\	-liſ	-ca-	2.B-\	-ca-	-ca-	2g\	-ca-	-ca-	2ee-\	-ta	-ca-	.	.	.	.	.	.	.	.	.	.
2E-\	pec-	-ta	.	.	.	8a-\L	-ta	-ta	8ff\L	.	-ta	.	.	.	.	.	.	.	.	.	.
.	.	.	.	.	.	8g\J	.	.	8ee-\J	.	.	.	.	.	.	.	.	.	.	.	.
.	.	.	4B-\	-ta	-ta	8f\L	.	.	8dd\L	.	.	.	.	.	.	.	.	.	.	.	.
.	.	.	.	.	.	8g\J	.	.	8ee-\J	.	.	.	.	.	.	.	.	.	.	.	.
=5	=5	=5	=5	=5	=5	=5	=5	=5	=5	=5	=5	=5	=5	=5	=5	=5	=5	=5	=5	=5	=5
2B-\	-ca-	mun-	2B-\	Mun-	mun-	2g\	mun-	mun-	2ee-\	mun-	mun-	.	.	.	.	.	.	.	.	.	.
2BB-/	-ta	-di	2B-\	-di	-di	2f\	-di	-di	2dd\	-di	-di	.	.	.	.	.	.	.	.	.	.
=6	=6	=6	=6	=6	=6	=6	=6	=6	=6	=6	=6	=6	=6	=6	=6	=6	=6	=6	=6	=6	=6
*	*	*	*	*	*	*	*	*	*	*	*	*	*	*	*	*	*	*2\right	*	*	*
!LO:TX:a:t=5:mod=	!	!	!LO:TX:a:t=5:mod=	!	!	!LO:TX:a:t=5:mod=	!	!	!LO:TX:a:t=5:mod=	!	!	!	!LO:DY:a:t=p.	!	!LO:DY:a:t=p&colon;	!	!	!	!	!	!
00r	.	.	00r	.	.	00r	.	.	00r	.	.	1BB-	p	1B-	p	4BB-/	.	4dd\	.	4ff\	.
.	.	.	.	.	.	.	.	.	.	.	.	.	.	.	.	4r	.	8b-\L	.	8dd\L	.
.	.	.	.	.	.	.	.	.	.	.	.	.	.	.	.	.	.	8cc\J	.	8ee-\J	.
.	.	.	.	.	.	.	.	.	.	.	.	.	.	.	.	2r	.	8dd\L	.	8ff\L	.
.	.	.	.	.	.	.	.	.	.	.	.	.	.	.	.	.	.	8ee-\	.	8gg\	.
.	.	.	.	.	.	.	.	.	.	.	.	.	.	.	.	.	.	8dd\	.	8ff\	.
.	.	.	.	.	.	.	.	.	.	.	.	.	.	.	.	.	.	8ee-\J	.	8gg\J	.
=7	=7	=7	=7	=7	=7	=7	=7	=7	=7	=7	=7	=7	=7	=7	=7	=7	=7	=7	=7	=7	=7
.	.	.	.	.	.	.	.	.	.	.	.	1BB-	.	1B-	.	4BB-/	.	4dd\	.	4ff\	.
.	.	.	.	.	.	.	.	.	.	.	.	.	.	.	.	4r	.	8dd\L	.	8ff\L	.
.	.	.	.	.	.	.	.	.	.	.	.	.	.	.	.	.	.	8ee-\J	.	8gg\J	.
.	.	.	.	.	.	.	.	.	.	.	.	.	.	.	.	4r	.	4ff\	.	4aa-\	.
.	.	.	.	.	.	.	.	.	.	.	.	.	.	.	.	4BBB-/	.	4ff\	.	4aa-\	.
=8	=8	=8	=8	=8	=8	=8	=8	=8	=8	=8	=8	=8	=8	=8	=8	=8	=8	=8	=8	=8	=8
.	.	.	.	.	.	.	.	.	.	.	.	1E-	.	1e-	.	4EE-/	.	4ee-\	.	4gg\	.
.	.	.	.	.	.	.	.	.	.	.	.	.	.	.	.	4r	.	8ee-\L	.	8gg\L	.
.	.	.	.	.	.	.	.	.	.	.	.	.	.	.	.	.	.	8ff\J	.	8aa-\J	.
.	.	.	.	.	.	.	.	.	.	.	.	.	.	.	.	2r	.	4gg\	.	4bb-\	.
.	.	.	.	.	.	.	.	.	.	.	.	.	.	.	.	.	.	4gg\	.	4bb-\	.
=9	=9	=9	=9	=9	=9	=9	=9	=9	=9	=9	=9	=9	=9	=9	=9	=9	=9	=9	=9	=9	=9
.	.	.	.	.	.	.	.	.	.	.	.	2E-/	.	2e-\	.	4E-\	.	4.gg\	.	4.bb-\	.
.	.	.	.	.	.	.	.	.	.	.	.	.	.	.	.	4r	.	.	.	.	.
.	.	.	.	.	.	.	.	.	.	.	.	.	.	.	.	.	.	8ee-\	.	8gg\	.
.	.	.	.	.	.	.	.	.	.	.	.	8r	.	8r	.	4EE-/	.	8gg\L	.	8bb-\L	.
.	.	.	.	.	.	.	.	.	.	.	.	8g\L	.	8b-\L	.	.	.	8b-\	.	8gg\	.
!	!	!	!	!	!	!	!	!	!	!	!	!	!	!	!	!	!	!LO:SIC:v:o=8a\	!	!	!
.	.	.	.	.	.	.	.	.	.	.	.	8f\	.	8a-\	.	4E-\	.	8a-	.	8ff\	.
.	.	.	.	.	.	.	.	.	.	.	.	8e-\J	.	8g\J	.	.	.	8g\J	.	8ee-\J	.
!	!	!	!	!	!	!	!	!	!	!	!	!	!	!	!	!	!	!LO:LB:g=original	!	!	!
=10	=10	=10	=10	=10	=10	=10	=10	=10	=10	=10	=10	=10	=10	=10	=10	=10	=10	=10	=10	=10	=10
1r	.	.	1r	.	.	1r	.	.	1r	.	.	4B-/	.	4f\	.	4BB-/	.	4f/	.	4dd\	.
.	.	.	.	.	.	.	.	.	.	.	.	4B-/	.	4f\	.	4B-\	.	4dd\	.	4bb-\	.
.	.	.	.	.	.	.	.	.	.	.	.	2B-/	.	2f\	.	2BB-/	.	2dd\	.	2bb-\	.
=11	=11	=11	=11	=11	=11	=11	=11	=11	=11	=11	=11	=11	=11	=11	=11	=11	=11	=11	=11	=11	=11
!	!	!	!	!	!	!	!	!	!	!	!	!	!	!	!	!	!LO:MO:mod=!LO&colon;DY&colon;ed=brack	!	!LO:MO:mod=!LO&colon;DY&colon;ed=brack	!	!
!	!	!	!	!	!	!	!	!	!	!	!	!	!	!	!	!	!null	!	!null	!	!
!	!	!	!	!	!	!	!	!	!	!	!	!	!	!	!	!	!LO:MO:null:mod=f	!LO:SIC:o=4cc\	!LO:MO:null:mod=f	!	!
2.BB-/	Do-	do-	2.d\	Do-	do-	2.f\	Do-	do-	2.a-X\	Do-	do-	4r	.	4r	.	4BB-/	.	4dd	.	4ff\	f
!	!	!	!	!	!	!	!	!	!	!	!	!	!	!	!	!	!LO:MO:mod=!LO&colon;DY&colon;ed=brack	!	!LO:MO:mod=!LO&colon;DY&colon;ed=brack	!	!
!	!	!	!	!	!	!	!	!	!	!	!	!	!	!	!	!	!null	!	!null	!	!
!	!	!	!	!	!	!	!	!	!	!	!	!	!LO:DY:a:t=p.	!	!LO:DY:a:t=p&colon;	!	!LO:MO:null:mod=p	!	!LO:MO:null:mod=p	!	!
.	.	.	.	.	.	.	.	.	.	.	.	4B-/	p	4f\	p	4BB-/	.	4f/	.	4a-\	p
.	.	.	.	.	.	.	.	.	.	.	.	4B-/	.	4f\	.	4BB-/	.	4f/	.	4a-\	.
4BB-/	-na	-na	4d\	-na	-na	4f\	-na	-na	4a-\	-na	-na	4B-/	.	4f\	.	4BB-/	.	4f/	.	4a-\	.
=12	=12	=12	=12	=12	=12	=12	=12	=12	=12	=12	=12	=12	=12	=12	=12	=12	=12	=12	=12	=12	=12
!	!	!	!	!	!	!	!	!	!	!	!	!	!	!	!	!	!LO:MO:mod=!LO&colon;DY&colon;ed=brack	!	!LO:MO:mod=!LO&colon;DY&colon;ed=brack	!	!
!	!	!	!	!	!	!	!	!	!	!	!	!	!	!	!	!	!null	!	!null	!	!
!	!	!	!	!	!	!	!	!	!	!	!	!	!	!	!	!	!LO:MO:null:mod=f	!	!LO:MO:null:mod=f	!	!LO:DY:a
2E-\	e-	e-	2e-\	e-	e-	2e-\	e-	e-	2g\	E-	e-	4r	.	4r	.	4EE-/	.	4g/	.	4ee-\	f
!	!	!	!	!	!	!	!	!	!	!	!	!	!	!	!	!	!LO:MO:mod=!LO&colon;DY&colon;ed=brack	!	!LO:MO:mod=!LO&colon;DY&colon;ed=brack	!	!
!	!	!	!	!	!	!	!	!	!	!	!	!	!	!	!	!	!null	!	!null	!	!
!	!	!	!	!	!	!	!	!	!	!	!	!	!	!	!	!	!LO:MO:null:mod=p	!	!LO:MO:null:mod=p	!	!
.	.	.	.	.	.	.	.	.	.	.	.	4e-\	.	4g\	.	4E-\	.	4e-/	.	4g\	p
2E-\	-js	-is	2e-\	-js	-is	2e-\	-js	-is	2g\	-js	-is	4e-\	.	4g\	.	4E-\	.	4e-/	.	4g\	.
.	.	.	.	.	.	.	.	.	.	.	.	4e-\	.	4g\	.	4E-\	.	4e-/	.	4g\	.
!	!	!	!	!	!	!	!	!	!	!	!	!	!	!	!	!	!	!	!	!LO:LB:g=original	!
=13	=13	=13	=13	=13	=13	=13	=13	=13	=13	=13	=13	=13	=13	=13	=13	=13	=13	=13	=13	=13	=13
!	!	!	!	!	!	!	!	!	!	!	!	!	!	!	!	!	!LO:MO:mod=!LO&colon;DY&colon;ed=brack	!	!LO:MO:mod=!LO&colon;DY&colon;ed=brack	!	!
!	!	!	!	!	!	!	!	!	!	!	!	!	!	!	!	!	!null	!	!null	!	!
!	!	!	!	!	!	!	!	!	!	!	!	!	!	!	!	!	!LO:MO:null:mod=f	!	!LO:MO:null:mod=f	!	!
2.C/	Re-	re-	2.en\	Re-	re-	2.g\	Re-	re-	2.b-\	Re-	re-	4r	.	4r	.	4CC/	.	4b-\	.	4gg\	f
!	!	!	!	!	!	!	!	!	!	!	!	!	!	!	!	!	!LO:MO:mod=!LO&colon;DY&colon;ed=brack	!	!LO:MO:mod=!LO&colon;DY&colon;ed=brack	!	!
!	!	!	!	!	!	!	!	!	!	!	!	!	!	!	!	!	!null	!	!null	!	!
!	!	!	!	!	!	!	!	!	!	!	!	!	!	!	!	!	!LO:MO:null:mod=p	!	!LO:MO:null:mod=p	!	!
.	.	.	.	.	.	.	.	.	.	.	.	4G/	.	4g\	.	4C/	.	4g/	.	4b-\	p
.	.	.	.	.	.	.	.	.	.	.	.	4G/	.	4g\	.	4C/	.	4g/	.	4b-\	.
4C/	-qui-	-qui-	4e\	-qui-	-qui-	4g\	-qui-	-qui-	4b-\	-qui-	-qui-	4G/	.	4g\	.	4C/	.	4g/	.	4b-\	.
!	!	!	!LO:LB:g=original	!	!	!	!	!	!LO:LB:g=original	!	!	!LO:LB:g=original	!	!	!	!	!	!	!	!	!
=14	=14	=14	=14	=14	=14	=14	=14	=14	=14	=14	=14	=14	=14	=14	=14	=14	=14	=14	=14	=14	=14
!	!	!	!	!	!	!	!	!	!	!	!	!	!	!	!	!	!LO:MO:mod=!LO&colon;DY&colon;ed=brack	!	!LO:MO:mod=!LO&colon;DY&colon;ed=brack	!	!
!	!	!	!	!	!	!	!	!	!	!	!	!	!	!	!	!	!null	!	!null	!	!
!	!	!	!	!	!	!LO:MO:mod=1f	!	!	!	!	!	!	!	!	!	!	!LO:MO:null:mod=f	!	!LO:MO:null:mod=f	!	!LO:DY:a
1F	-em	-em	1f	-em	-em	2f\	-em	-em	1an	-em	-em	4r	.	4f\	.	4FF/	.	4an\	.	4ff\	f
!	!	!	!	!	!	!	!	!	!	!	!	!	!	!	!	!	!LO:MO:mod=!LO&colon;DY&colon;ed=brack	!	!LO:MO:mod=!LO&colon;DY&colon;ed=brack	!	!
!	!	!	!	!	!	!	!	!	!	!	!	!	!	!	!	!	!null	!	!null	!	!
!	!	!	!	!	!	!	!	!	!	!	!	!	!	!	!	!	!LO:MO:null:mod=p	!	!LO:MO:null:mod=p	!	!
.	.	.	.	.	.	.	.	.	.	.	.	4f\	.	4f\	.	4F\	.	4c/	.	4a\	p
!	!	!	!	!	!	!LO:MO:mod=.	!	!	!	!	!	!	!	!LO:LB:g=original	!	!	!	!	!	!	!
.	.	.	.	.	.	2f\	.	.	.	.	.	4f\	.	4f\	.	4F\	.	4c/	.	4a\	.
.	.	.	.	.	.	.	.	.	.	.	.	4f\	.	4f\	.	4F\	.	4c/	.	4a\	.
!	!	!	!	!	!	!LO:LB:g=original	!	!	!	!	!	!	!	!	!	!LO:LB:g=original	!	!	!	!	!
=15	=15	=15	=15	=15	=15	=15	=15	=15	=15	=15	=15	=15	=15	=15	=15	=15	=15	=15	=15	=15	=15
!	!	!	!	!	!	!	!	!	!	!	!	!	!	!	!	!	!LO:MO:mod=!LO&colon;DY&colon;ed=brack	!	!LO:MO:mod=!LO&colon;DY&colon;ed=brack	!	!
!	!	!	!	!	!	!	!	!	!	!	!	!	!	!	!	!	!null	!	!null	!	!
!	!	!	!	!	!	!	!	!	!	!	!	!	!	!	!	!	!LO:MO:null:mod=f	!	!LO:MO:null:mod=f	!	!
1F	Dona	do-	1c	Do-	do-	1an	Do-	do-	1ee-	Do-	do-	4f\	.	4f\	.	4FF/	.	4an\	.	4f/	f
!	!	!	!	!	!	!	!	!	!	!	!	!	!	!	!	!	!LO:MO:mod=!LO&colon;DY&colon;ed=brack	!	!LO:MO:mod=!LO&colon;DY&colon;ed=brack	!	!
!	!	!	!	!	!	!	!	!	!	!	!	!	!	!	!	!	!null	!	!null	!	!
!	!	!	!	!	!	!	!	!	!	!	!	!	!	!	!	!	!LO:MO:null:mod=p	!	!LO:MO:null:mod=p	!	!
.	.	.	.	.	.	.	.	.	.	.	.	4f\	.	4f\	.	4F\	.	4cc\	.	4ee-\	p
.	.	.	.	.	.	.	.	.	.	.	.	4f\	.	4f\	.	4F\	.	4cc\	.	4ee-\	.
.	.	.	.	.	.	.	.	.	.	.	.	4f\	.	4f\	.	4F\	.	4cc\	.	4ee-\	.
!LO:LB:g=original	!	!	!	!	!	!	!	!	!	!	!	!	!	!	!	!	!	!	!	!	!
=16	=16	=16	=16	=16	=16	=16	=16	=16	=16	=16	=16	=16	=16	=16	=16	=16	=16	=16	=16	=16	=16
!	!	!	!	!	!	!	!	!	!	!	!	!	!	!	!	!	!LO:MO:mod=!LO&colon;DY&colon;ed=brack	!	!LO:MO:mod=!LO&colon;DY&colon;ed=brack	!	!
!	!	!	!	!	!	!	!	!	!	!	!	!	!	!	!	!	!null	!	!null	!	!
!	!	!	!	!	!	!	!	!	!	!	!	!	!	!	!	!	!LO:MO:null:mod=f	!	!LO:MO:null:mod=f	!	!LO:DY:a
1B-	e-	-na	1B-	-na	-na	1f	-na	-na	1dd	-na	-na	4B-/	.	4f\	.	4BBB-/	.	4dd\	.	4bb-\	f
!	!	!	!	!	!	!	!	!	!	!	!	!	!	!	!	!	!LO:MO:mod=!LO&colon;DY&colon;ed=brack	!	!LO:MO:mod=!LO&colon;DY&colon;ed=brack	!	!
!	!	!	!	!	!	!	!	!	!	!	!	!	!	!	!	!	!null	!	!null	!	!
!	!	!	!	!	!	!	!	!	!	!	!	!	!	!	!	!	!LO:MO:null:mod=p	!	!LO:MO:null:mod=p	!	!
.	.	.	.	.	.	.	.	.	.	.	.	4B-/	.	4f\	.	4BB-/	.	4f/	.	4dd\	p
.	.	.	.	.	.	.	.	.	.	.	.	4B-/	.	4f\	.	4BB-/	.	4f/	.	4dd\	.
.	.	.	.	.	.	.	.	.	.	.	.	4B-/	.	4f\	.	4BB-/	.	4f/	.	4dd\	.
=17	=17	=17	=17	=17	=17	=17	=17	=17	=17	=17	=17	=17	=17	=17	=17	=17	=17	=17	=17	=17	=17
2.E-\	.	e-	2c\	e-	e-	2g\	e-	e-	2cc\	ejs	e-	2e-\	.	2g\	.	2EE-/	.	2g/	.	2cc\	.
!	!	!	!LO:SIC:o=4c\	!	!	!LO:SIC:o=4e-\	!	!	!	!	!	!	!	!	!	!	!	!LO:LB:g=original	!	!	!
.	.	.	(4c	-js	-is	(4e-	.	-is	8gg\L	.	-is	4r	.	4r	.	4r	.	8r	.	8gg\L	.
.	.	.	.	.	.	.	.	.	8ee-\	.	.	.	.	.	.	.	.	8g/L	.	8ee-\	.
!	!	!	!	!	!	!LO:SIC:o=4g\	!	!	!	!	!	!	!	!	!	!	!	!	!	!	!
!	!	!	!LO:SIC:o=4e-\	!	!	!LO:TX:a:Bi:t=3 vicibus repetitur:mod=	!	!	!	!	!	!	!	!	!	!	!	!	!	!	!
4E-\	-is	-is	4e-)	.	.	4g)	-is	.	8dd\	.	.	4e-\	.	4g\	.	4E-\	.	8f/	.	8dd\	.
.	.	.	.	.	.	.	.	.	8cc\J	.	.	.	.	.	.	.	.	8e-/J	.	8cc\J	.
=18	=18	=18	=18	=18	=18	=18	=18	=18	=18	=18	=18	=18	=18	=18	=18	=18	=18	=18	=18	=18	=18
!	!	!	!LO:SIC:o=2d\	!	!	!	!	!	!	!	!	!	!	!	!	!	!	!	!	!	!
!LO:TX:a:Bi:t=3 vicibus repetitur:mod=	!	!	!LO:TX:a:Bi:t=3 vicibus repetitur:mod=	!	!	!	!	!	!LO:SIC:o=2b-\	!	!	!	!	!	!	!	!	!	!	!	!
2.F\	Re-	re-	(2d	Re-	re-	2.f\	Re-	re-	(2b-	Re-	re-	2f\	.	2f\	.	4F\	.	8F/L	.	2b-\	.
.	.	.	.	.	.	.	.	.	.	.	.	.	.	.	.	.	.	8d/	.	.	.
.	.	.	.	.	.	.	.	.	.	.	.	.	.	.	.	4F\	.	8B-/	.	.	.
.	.	.	.	.	.	.	.	.	.	.	.	.	.	.	.	.	.	8d/J	.	.	.
!	!	!	!	!	!	!	!	!	!LO:SIC:o=4an\	!	!	!	!	!	!	!	!	!	!	!	!
!	!	!	!LO:SIC:o=4c\	!	!	!	!	!	!LO:TX:a:Bi:t=3 vicibus repetitur:mod=	!	!	!	!	!	!	!	!	!	!	!	!
.	.	.	4c)	-qui-	.	.	.	.	4a)	-qui-	.	2f\	.	2f\	.	4FF/	.	8F/L	.	2cc\	.
!	!	!	!	!	!	!	!	!	!	!	!	!	!	!	!	!	!	!LO:TX:b:t=f:mod=	!	!	!
.	.	.	.	.	.	.	.	.	.	.	.	.	.	.	.	.	.	8e-/	.	.	.
!	!	!	!	!	!	!	!	!	!	!	!	!	!	!	!	!	!	!LO:TX:b:t=d:mod=	!	!	!
4F\	-qui-	-qui-	4c\	.	-qui-	4f\	-qui-	-qui-	4a\	.	-qui-	.	.	.	.	4FF/	.	8c/	.	.	.
!	!	!	!	!	!	!	!	!	!	!	!	!	!	!	!	!	!	!LO:TX:b:t=f:mod=	!	!	!
.	.	.	.	.	.	.	.	.	.	.	.	.	.	.	.	.	.	8e-/J	.	.	.
=19	=19	=19	=19	=19	=19	=19	=19	=19	=19	=19	=19	=19	=19	=19	=19	=19	=19	=19	=19	=19	=19
2BB-/	-em	-em.	2d\	-em	-em.	2f\	-em	-em.	2b-\	-em	-em.	2B-/	.	2f\	.	2BB-/	.	2d/	.	2b-\	.
2r	.	.	2r	.	.	2r	.	.	2r	.	.	2r	.	2r	.	2r	.	8dd\L	.	8ff\L	.
.	.	.	.	.	.	.	.	.	.	.	.	.	.	.	.	.	.	8ee-\	.	8gg\	.
.	.	.	.	.	.	.	.	.	.	.	.	.	.	.	.	.	.	8dd\	.	8ff\	.
.	.	.	.	.	.	.	.	.	.	.	.	.	.	.	.	.	.	8ee-\J	.	8gg\J	.
=20	=20	=20	=20	=20	=20	=20	=20	=20	=20	=20	=20	=20	=20	=20	=20	=20	=20	=20	=20	=20	=20
!LO:TX:a:t=7:mod=	!	!	!	!	!	!LO:TX:a:t=7:mod=	!	!	!LO:TX:a:t=7:mod=	!	!	!	!	!	!	!	!	!	!	!	!
00r	.	.	00r	.	.	00r	.	.	00r	.	.	4r	.	4r	.	8r	.	4.dd\	.	4.ff\	.
.	.	.	.	.	.	.	.	.	.	.	.	.	.	.	.	8BB-\L	.	.	.	.	.
.	.	.	.	.	.	.	.	.	.	.	.	4B-/	.	4f\	.	8D\	.	.	.	.	.
.	.	.	.	.	.	.	.	.	.	.	.	.	.	.	.	8F\J	.	8cc\	.	8ee-\	.
.	.	.	.	.	.	.	.	.	.	.	.	4B-/	.	4f\	.	8B-\L	.	4b-\	.	4dd\	.
.	.	.	.	.	.	.	.	.	.	.	.	.	.	.	.	8F\	.	.	.	.	.
.	.	.	.	.	.	.	.	.	.	.	.	4r	.	4r	.	8D\	.	4b-\	.	4dd\	.
.	.	.	.	.	.	.	.	.	.	.	.	.	.	.	.	8F\J	.	.	.	.	.
!	!	!	!	!	!	!	!	!	!	!	!	!	!	!	!	!LO:LB:g=original	!	!	!	!	!
=21	=21	=21	=21	=21	=21	=21	=21	=21	=21	=21	=21	=21	=21	=21	=21	=21	=21	=21	=21	=21	=21
.	.	.	.	.	.	.	.	.	.	.	.	4B-/	.	4f\	.	4BB-/	.	4b-\	.	4dd\	.
.	.	.	.	.	.	.	.	.	.	.	.	4e-\	.	4g\	.	4E-\	.	8g/L	.	8ee-\L	.
.	.	.	.	.	.	.	.	.	.	.	.	.	.	.	.	.	.	8e-/J	.	8cc\J	.
.	.	.	.	.	.	.	.	.	.	.	.	4f\	.	4f\	.	4F\	.	4d/	.	4b-\	.
.	.	.	.	.	.	.	.	.	.	.	.	4f\	.	4f\	.	4FF/	.	4c/	.	4a\	.
=22	=22	=22	=22	=22	=22	=22	=22	=22	=22	=22	=22	=22	=22	=22	=22	=22	=22	=22	=22	=22	=22
.	.	.	.	.	.	.	.	.	.	.	.	4B-/	.	4f\	.	4BB-/	.	4d/	.	4.b-\	.
.	.	.	.	.	.	.	.	.	.	.	.	4r	.	4r	.	4r	.	4r	.	.	.
.	.	.	.	.	.	.	.	.	.	.	.	.	.	.	.	.	.	.	.	8bb-\	.
!	!	!	!	!	!	!	!	!	!	!	!	!	!	!	!	!	!	!LO:LB:g=original	!	!	!
.	.	.	.	.	.	.	.	.	.	.	.	2r	.	2r	.	2r	.	8dd\L	.	8ff\L	.
.	.	.	.	.	.	.	.	.	.	.	.	.	.	.	.	.	.	8ee-\	.	8gg\	.
.	.	.	.	.	.	.	.	.	.	.	.	.	.	.	.	.	.	8dd\	.	8ff\	.
.	.	.	.	.	.	.	.	.	.	.	.	.	.	.	.	.	.	8ee-\J	.	8gg\J	.
!	!	!	!	!	!	!	!	!	!	!	!	!	!	!	!	!	!	!	!	!LO:LB:g=original	!
=23	=23	=23	=23	=23	=23	=23	=23	=23	=23	=23	=23	=23	=23	=23	=23	=23	=23	=23	=23	=23	=23
.	.	.	.	.	.	.	.	.	.	.	.	4r	.	4r	.	8r	.	4.dd\	.	4.ff\	.
.	.	.	.	.	.	.	.	.	.	.	.	.	.	.	.	8BB-\L	.	.	.	.	.
.	.	.	.	.	.	.	.	.	.	.	.	4B-/	.	4f\	.	8D\	.	.	.	.	.
.	.	.	.	.	.	.	.	.	.	.	.	.	.	.	.	8F\J	.	8cc\	.	8ee-\	.
.	.	.	.	.	.	.	.	.	.	.	.	4B-/	.	4f\	.	8B-\L	.	4b-\	.	4dd\	.
.	.	.	.	.	.	.	.	.	.	.	.	.	.	.	.	8F\	.	.	.	.	.
.	.	.	.	.	.	.	.	.	.	.	.	4r	.	4r	.	8D\	.	4b-\	.	4dd\	.
.	.	.	.	.	.	.	.	.	.	.	.	.	.	.	.	8F\J	.	.	.	.	.
!	!	!	!	!	!	!	!	!	!	!	!	!LO:LB:g=original	!	!LO:LB:g=original	!	!	!	!	!	!	!
=24	=24	=24	=24	=24	=24	=24	=24	=24	=24	=24	=24	=24	=24	=24	=24	=24	=24	=24	=24	=24	=24
!	!	!	!	!	!	!	!	!	!	!	!	!	!	!LO:TX:a:i:t=tribus vicibus repet&colon;:mod=	!	!	!	!	!	!	!
0r	.	.	0r	.	.	0r	.	.	0r	.	.	4B-/	.	4f\	.	4BB-/	.	4b-\	.	8dd\L	.
.	.	.	.	.	.	.	.	.	.	.	.	.	.	.	.	.	.	.	.	8ff\	.
.	.	.	.	.	.	.	.	.	.	.	.	4e-\	.	4g\	.	4E-\	.	8g/L	.	8ee-\	.
.	.	.	.	.	.	.	.	.	.	.	.	.	.	.	.	.	.	8e-/J	.	8cc\J	.
.	.	.	.	.	.	.	.	.	.	.	.	4f\	.	4f\	.	4F\	.	4d/	.	4b-\	.
.	.	.	.	.	.	.	.	.	.	.	.	4f\	.	4f\	.	4FF/	.	4c/	.	4a\	.
=25	=25	=25	=25	=25	=25	=25	=25	=25	=25	=25	=25	=25	=25	=25	=25	=25	=25	=25	=25	=25	=25
!	!	!	!	!	!	!	!	!	!	!	!	!	!	!	!	!LO:TX:b:i:t=3 vicibu Repetitur:mod=	!	!	!	!	!
.	.	.	.	.	.	.	.	.	.	.	.	2B-/	.	2f\	.	4BB-/	.	2d/	.	2b-\	.
.	.	.	.	.	.	.	.	.	.	.	.	.	.	.	.	4B-\	.	.	.	.	.
.	.	.	.	.	.	.	.	.	.	.	.	2r	.	2r	.	2r	.	8b-\L	.	8dd\L	.
.	.	.	.	.	.	.	.	.	.	.	.	.	.	.	.	.	.	8cc\	.	8ee-\	.
.	.	.	.	.	.	.	.	.	.	.	.	.	.	.	.	.	.	8dd\	.	8ff\	.
.	.	.	.	.	.	.	.	.	.	.	.	.	.	.	.	.	.	8ee-\J	.	8gg\J	.
=26	=26	=26	=26	=26	=26	=26	=26	=26	=26	=26	=26	=26	=26	=26	=26	=26	=26	=26	=26	=26	=26
!LO:MO:mod=!LO&colon;TX&colon;t=1. 2.	!	!	!	!	!	!	!	!	!	!	!	!	!	!	!	!	!	!	!	!	!
!null	!	!	!	!	!	!	!	!	!	!	!	!	!	!	!	!	!	!	!	!	!
!LO:MO:mod=*>A1	!	!	!LO:MO:mod=*>A1	!	!	!LO:MO:mod=*>A1	!	!	!LO:MO:mod=*>A1	!	!	!LO:MO:mod=*>A1	!	!LO:MO:mod=*>A1	!	!LO:MO:mod=*>A1	!	!LO:MO:mod=*>A1	!	!LO:MO:mod=*>A1	!
*null	*	*	*null	*	*	*null	*	*	*null	*	*	*null	*	*null	*	*null	*	*null	*	*null	*
1r	.	.	1r	.	.	1r	.	.	1r	.	.	4r	.	4r	.	4r	.	4ff\	.	4aa-X\	.
.	.	.	.	.	.	.	.	.	.	.	.	4B-/	.	4f\	.	4BB-/	.	4f/	.	4a-/	.
.	.	.	.	.	.	.	.	.	.	.	.	4B-/	.	4f\	.	4BB-/	.	4f/	.	4a-/	.
!	!	!	!	!	!	!	!	!	!	!	!	!LO:TX:t=P:problem=brak znaku repetycji	!	!	!	!	!	!	!	!	!
.	.	.	.	.	.	.	.	.	.	.	.	4B-/	.	4f\	.	4BB-/	.	4f/	.	4a-/	.
=:|!	=:|!	=:|!	=:|!	=:|!	=:|!	=:|!	=:|!	=:|!	=:|!	=:|!	=:|!	=:|!	=:|!	=:|!	=:|!	=:|!	=:|!	=:|!	=:|!	=:|!	=
!!LO:MO:mod
!! !LO:TX:a:t=3.	!	!	!	!	!	!	!	!	!	!	!	!	!	!	!	!	!	!	!	!	!
!! *>A2	*	*	*>A2	*	*	*>A2	*	*	*>A2	*	*	*>A2	*	*>A2	*	*>A2	*	*>A2	*	*>A2	*
!! =26	=26	=26	=26	=26	=26	=26	=26	=26	=26	=26	=26	=26	=26	=26	=26	=26	=26	=26	=26	=26	=26
!! 1r	.	.	1r	.	.	1r	.	.	1r	.	.	4r	.	4r	.	4r	.	4ff\	.	4aa-X\	.
!! .	.	.	.	.	.	.	.	.	.	.	.	4B-/	.	4f\	.	4BB-/	.	4f/	.	4a-/	.
!! .	.	.	.	.	.	.	.	.	.	.	.	4B-/	.	4f\	.	4BB-/	.	4f/	.	4a-/	.
!! !	!	!	!	!	!	!	!	!	!	!	!	!LO:TX:t=P:problem=brak znaku repetycji	!	!	!	!	!	!	!	!	!
!! .	.	.	.	.	.	.	.	.	.	.	.	4B-/	.	4f\	.	4BB-/	.	4f/	.	4a-/	.
!!LO:MO:end
=27	=27	=27	=27	=27	=27	=27	=27	=27	=27	=27	=27	=27	=27	=27	=27	=27	=27	=27	=27	=27	=27
*>B	*	*	*>B	*	*	*>B	*	*	*>B	*	*	*>B	*	*>B	*	*>B	*	*>B	*	*>B	*
!	!	!	!	!	!	!	!	!	!	!	!	!	!	!	!	!	!LO:MO:mod=!LO&colon;DY&colon;ed=brack	!	!	!	!
!	!	!	!	!	!	!	!	!	!	!	!	!	!	!	!	!	!null	!	!	!	!
!	!	!	!	!	!	!	!	!	!	!	!	!	!	!	!	!	!LO:MO:null:mod=f	!	!LO:DY:a	!	!
2.E-\	Sem-	sem-	2.B-\	Sem-	sem-	2.e-\	Sem-	sem-	2.g\	Sem-	sem-	4r	.	4r	.	4EE-/	.	4g/	f	4ee-\	f
!	!	!	!	!	!	!	!	!	!	!	!	!	!	!	!	!	!	!	!LO:DY:a:t=pi	!	!
.	.	.	.	.	.	.	.	.	.	.	.	4e-\	.	4g\	.	4E-\	.	4e-/	p	4g/	p
.	.	.	.	.	.	.	.	.	.	.	.	4e-\	.	4g\	.	4E-\	.	4e-/	.	4g/	.
4E-\	-pi-	-pi-	4B-\	-pi-	-pi-	4e-\	-pi-	-pi-	4g\	-pi-	-pi-	4e-\	.	4g\	.	4E-\	.	4e-/	.	4g/	.
=28	=28	=28	=28	=28	=28	=28	=28	=28	=28	=28	=28	=28	=28	=28	=28	=28	=28	=28	=28	=28	=28
!	!	!	!	!	!	!	!	!	!	!	!	!	!	!	!	!	!LO:MO:mod=!LO&colon;DY&colon;ed=brack	!	!	!	!
!	!	!	!	!	!	!	!	!	!	!	!	!	!	!	!	!	!null	!	!	!	!
!	!	!	!	!	!	!	!	!	!	!	!	!	!	!	!	!	!LO:MO:null:mod=f	!	!LO:DY:a	!	!
1AAn	-ter-	-ter-	1c	-ter-	-ter-	1e-	-ter-	-ter-	1g	-ter-	-ter-	4r	.	4r	.	4AAn/	.	4g/	f	4ee-\	f
!	!	!	!	!	!	!	!	!	!	!	!	!	!	!	!	!	!	!	!LO:DY:a:t=pi	!	!
.	.	.	.	.	.	.	.	.	.	.	.	4e-\	.	4g\	.	4AA/	.	4e-/	p	4g/	p
!	!	!	!	!	!	!	!	!	!	!	!	!	!	!	!	!	!	!LO:LB:g=original	!	!	!
.	.	.	.	.	.	.	.	.	.	.	.	4e-\	.	4g\	.	4AA/	.	4e-/	.	4g/	.
.	.	.	.	.	.	.	.	.	.	.	.	4e-\	.	4g\	.	4AA/	.	4e-/	.	4g/	.
=29	=29	=29	=29	=29	=29	=29	=29	=29	=29	=29	=29	=29	=29	=29	=29	=29	=29	=29	=29	=29	=29
2BB-/	-nam	-nam	2d\	-nam	-nam	2d\	-nam	-nam	2f/	-nam	-nam	2B-/	.	2f\	.	2BB-/	.	2d/	.	2f/	.
2r	.	.	2r	.	.	2r	.	.	2r	.	.	2r	.	4r	.	2r	.	2r	.	4b-\	.
.	.	.	.	.	.	.	.	.	.	.	.	.	.	4r	.	.	.	.	.	4b-\	.
=30	=30	=30	=30	=30	=30	=30	=30	=30	=30	=30	=30	=30	=30	=30	=30	=30	=30	=30	=30	=30	=30
*	*	*	*	*ij	*ij	*	*	*	*	*ij	*ij	*	*	*	*	*	*	*	*	*	*
!	!	!	!	!	!	!	!	!	!	!	!	!	!	!	!	!	!	!	!LO:MO:mod=!LO&colon;DY&colon;ed=brack	!	!
!	!	!	!	!	!	!	!	!	!	!	!	!	!	!	!	!	!	!	!null	!	!
!	!	!	!	!	!	!	!	!	!	!	!	!	!	!	!	!	!	!	!LO:MO:null:mod=f	!	!
2.C/	Sem-	sem-	2.F/	Sem-	sem-	2.e-\	Sem-	sem-	2.an\	Sem-	sem-	4r	.	4r	.	4r	.	8F/L	.	4ee-\	f
!	!	!	!	!	!	!	!	!	!	!	!	!	!	!	!	!	!	!	!LO:MO:mod=!LO&colon;DY&colon;ed=brack	!	!
!	!	!	!	!	!	!	!	!	!	!	!	!	!	!	!	!	!	!	!null	!	!
!	!	!	!	!	!	!	!	!	!	!	!	!	!	!	!	!	!	!	!LO:MO:null:mod=p	!	!
.	.	.	.	.	.	.	.	.	.	.	.	.	.	.	.	.	.	8e-/J	.	.	.
.	.	.	.	.	.	.	.	.	.	.	.	4f\	.	4f\	.	4C/	.	4e-/	.	4a\	p
.	.	.	.	.	.	.	.	.	.	.	.	4f\	.	4f\	.	4C/	.	4e-/	.	4a\	.
4C/	-pi-	-pi-	4F/	-pi-	-pi-	4e-\	-pi-	-pi-	4a\	-pi-	-pi-	4f\	.	4f\	.	4C/	.	4e-/	.	4a\	.
!	!	!	!	!	!	!	!	!	!LO:LB:g=original	!	!	!	!	!	!	!	!	!	!	!	!
=31	=31	=31	=31	=31	=31	=31	=31	=31	=31	=31	=31	=31	=31	=31	=31	=31	=31	=31	=31	=31	=31
!	!	!	!	!	!	!	!	!	!	!	!	!	!	!	!	!	!	!	!LO:MO:mod=!LO&colon;DY&colon;ed=brack	!	!
!	!	!	!	!	!	!	!	!	!	!	!	!	!	!	!	!	!	!	!null	!	!
!	!	!	!	!	!	!	!	!	!LO:SIC:v:o=1a-	!	!	!	!	!	!	!	!	!	!LO:MO:null:mod=f	!	!
1C	-ter-	-ter-	1F	-ter-	-ter-	1e-	-ter-	-ter-	1a	-ter-	-ter-	4r	.	4r	.	4r	.	4F/	.	4ee-\	f
!	!	!	!	!	!	!	!	!	!	!	!	!	!	!	!	!	!	!	!LO:MO:mod=!LO&colon;DY&colon;ed=brack	!	!
!	!	!	!	!	!	!	!	!	!	!	!	!	!	!	!	!	!	!	!null	!	!
!	!	!	!	!	!	!	!	!	!	!	!	!	!	!	!	!	!	!	!LO:MO:null:mod=p	!LO:SIC:v:o=4a-\	!
.	.	.	.	.	.	.	.	.	.	.	.	4f\	.	4f\	.	4C/	.	4e-/	.	4a	p
!	!	!	!	!	!	!	!	!	!	!	!	!	!	!	!	!	!	!	!	!LO:SIC:v:o=4a-\	!
.	.	.	.	.	.	.	.	.	.	.	.	4f\	.	4f\	.	4C/	.	4e-/	.	4a	.
!	!	!	!	!	!	!	!	!	!	!	!	!	!	!	!	!	!	!	!	!LO:SIC:v:o=4a-\	!
.	.	.	.	.	.	.	.	.	.	.	.	4f\	.	4f\	.	4C/	.	4e-/	.	4a	.
=32	=32	=32	=32	=32	=32	=32	=32	=32	=32	=32	=32	=32	=32	=32	=32	=32	=32	=32	=32	=32	=32
2BB-/	-nam	-nam.	2F/	-nam	-nam.	2d\	-nam	-nam.	2b-\	-nam	-nam.	2B-/	.	2f\	.	2BB-/	.	2d/	.	2b-\	.
*	*	*	*	*Xij	*Xij	*	*	*	*	*Xij	*Xij	*	*	*	*	*	*	*	*	*	*
!	!	!	!	!	!	!	!	!	!	!	!	!	!	!	!	!	!	!LO:SIC:o=8d/L	!	!	!
!LO:TX:t=P:problem=kreska taktowa pojedyncza	!	!	!LO:TX:t=P:problem=kreska taktowa pojedyncza	!	!	!	!	!	!	!	!	!	!	!	!	!	!	!LO:TX:t=P:problem=mixed beam	!	!	!
2r	.	.	2r	.	.	2r	.	.	2r	.	.	2r	.	2r	.	2r	.	(8dL	.	(8b-\L	.
!	!	!	!	!	!	!	!	!	!	!	!	!	!	!	!	!	!	!LO:SIC:o=8b-/J	!	!	!
.	.	.	.	.	.	.	.	.	.	.	.	.	.	.	.	.	.	8b-	.	8dd\	.
!	!	!	!	!	!	!	!	!	!	!	!	!	!	!	!	!	!	!LO:SIC:v:o=8a\L	!	!	!
.	.	.	.	.	.	.	.	.	.	.	.	.	.	.	.	.	.	8a-	.	8cc\	.
!	!	!	!	!	!	!	!	!	!	!	!	!	!	!	!	!	!	!LO:SIC:o=8cc\J	!	!	!
.	.	.	.	.	.	.	.	.	.	.	.	.	.	.	.	.	.	8ccJ)	.	8ee-\J)	.
==	==	==	==	==	==	==	==	==	==	==	==	==	==	==	==	==	==	==	==	==	==
*-	*-	*-	*-	*-	*-	*-	*-	*-	*-	*-	*-	*-	*-	*-	*-	*-	*-	*-	*-	*-	*-
!!!system-decoration: [(ww)][(bras)][vox]
!!!RDF**kern: > = above
!!!RDF**kern: < = below
!!LO:MO:mod
!! !!!RDF**kern: @ = marked note, color=grey
!!LO:MO:end
!!!filter-modern: shed -e "s/^(\d+[\/\\]right)/$1yy/I" | shed -e "s/(LO:DY.*):t=(.*$)/$1:T=$2/L; s/LO:DY(.*)(:a)(.*)/LO:dy:$1$2$3/L; s/LO:DY(.*)(:b)(.*)/LO:dy:$1$2$3/L; s/LO:DY(.*)(:rj)(.*)/LO:dy:$1$2$3/L" | shed -e "s/TX(.*):t=P:/tx$1:t=P:/LG" | shed -k -e "s/([^a-gA-Gn#X-])[<>]/$1/g" | sic -sq | modori -m | autostem -r | tie -s | humtr -p | shed -e "s/yy//"
!!!ENC: Katarzyna Serwa
!!!END: 2020-09-25
!!!EED: Wojciech Jakubiak-Danek
!!!EEV: 2022-01-31
!!!EED: Andrzej Kubiczek
!!!EST: revision finished 2022-12-04
!!!ENC-modern: Andrzej Kubiczek
!!!END-modern: 2022-12-04
